X:75
C:Page 38
T:Lady Harriet Hope’s Reel. MBe.75
S:Matthew Betham MS, Towcett Cumbria, 1815
O:England;Cumbria;Towcett
Z:VMP – Hugh Taylor, 2012
M:C
L:1/8
Q:1/2=80
R:.Reel
K:G
GBdg edcB|”^Cr in MS”gbag aA A2|GBdg edcB|cAdB G/G/G G2:|
|:(gdg)a (3(gab) ag|fdge adbd|gdga (3(gab) ag|dgfa g/g/g g2|
gdga (3(gab) ag|agab c’bab|gedc Bdge|dBcA G/G/G G2:|

